X:1
T:When Jesus Returns for His Own
T:Robert Emmett Winsett
T:When Jesus Returns for His Own
T:Public Domain
T:Public Domain
T:Public Domain
C:Robert Emmett Winsett
Z:Public Domain
%%score ( 1 2 ) ( 3 4 )
L:1/8
M:4/4
K:F
V:1 treble 
V:2 treble 
V:3 bass 
V:4 bass 
V:1
 (FG) | [FA]2 [FA]>[FA] [Ac]2 [Ac]>[Ac] | [FA]2 [FA]>[F^G] [FA]3 [CG] | %3
w: 1.~There’s *|ing a won- der- ful, won-|der- ful day, Its glo-|
w: 2.~Then *|who have suf- fered and toiled|for His name, Tho’ hat-|
w: 3.~Tri- *|ant they’ll rise with their Lord|in the air, And sit|
w: 4.~No *|er we’ll think of the tri-|als down here, The days|
w: 5.~Then *|us be faith- ful, e’en down|un- to death, Nor ev-|
 [DF]2 [DF]>[DG] [CF]2 [EG]>[E^G] | [FA]6 (FG) | [FA]2 [FA]>[FA] [Ac]2 [Ac]>[Ac] | %6
w: ry has nev- er been known;|When free *|our bur- dens we’re go- ing|
w: ed, re- ject- ed, un- known,|No long- *|shall suf- fer the world’s scorn|
w: with Him soon on His throne,|While those *|once rid- i- culed weep in|
w: when we suf- fered a- lone,|For God’s *|ing hand wipes a- way ev-|
w: er our trou- bles be- moan,|But ren- *|Him praise, and re- joice full|
 [FA]2 [FA]>[F^G] [FA]3 [Fd] | [Fc]2 [FA]>F [FA]2 [FA][EG] | (F2 DD C2) ||"^Refrain" [FA]2 | %10
w: a- way, As Je- sus|re- turns for His own. *|||
w: and shame, When Je- sus|re- turns for His own. *|||
w: des- pair, When Je- sus|re- turns for His own. When|sus * * *|turns|
w: ’ry tear, When Je- sus|re- turns for His own. *|||
w: of faith, That we may|be count- ed His own. *|||
 [Fc]2 [Fc][Fc] (dc)[FA][CF] | (F2 FG F2) [FA]2 | [Ac]2 [Bd][Ac] [FA]2 [CG][DF] | (E2 EE E2) (FG) | %14
w: ||||
w: ||||
w: for His own, And * car- ries|up * * * to|throne, There’ll be no more sad-|ness, * * * But *|
w: ||||
w: ||||
 [FA]2 [FA][FA] [FB] [FA]2 (G/F/) | [Fc]2 [Fc][Fc] [Fd] [Fc]2 |] %16
w: ||
w: ||
w: be glad- ness * * * *||
w: ||
w: ||
V:2
 C2 | x8 | x8 | x8 | x6 C2 | x8 | x8 | x7/2 F/ x4 | F6 || x2 | x4 F2 x2 | c6 x2 | x8 | G6 C2 | %14
w: com-||||from||||||||||
w: those||||er||||||||||
w: umph-||||who|||Je-|re-||us|His||all will|
w: long-||||lov-||||||||||
w: let||||der||||||||||
 x7 C | x7 |] %16
w: ||
w: ||
w: ||
w: ||
w: ||
V:3
 (A,B,) | [F,C]2 [F,C]>[F,C] [F,F]2 [F,F]>[F,F] | [F,C]2 [F,C]>[F,=B,] [F,C]3 [A,,C] | %3
w: ~ *|~ ~ ~ ~ ~ ~|~ ~ ~ ~ ~|
 [B,,B,]2 [B,,B,]>[B,,B,] [A,,C]2 [C,C]>[C,C] | ([F,C]2 [F,C][F,C] [F,C]2) (A,B,) | %5
w: ~ ~ ~ ~ ~ ~|~ * * * ~ *|
 [F,C]2 [F,C]>[F,C] [F,F]2 [F,F]>[F,F] | [F,C]2 [F,C]>[F,D] [F,C]3 [B,,B,] | %7
w: ~ ~ ~ ~ ~ ~|~ ~ D.S.~When Je- sus|
 [C,A,]2 [D,F,]>[D,A,] [C,C]2 [C,C][C,B,] | (A,2 B,B, A,2) || [F,C]2 | %10
w: re- turns for His own. *|||
 [F,A,]2 [F,A,][F,A,] (B,A,)[F,C][F,A,] | ([F,A,]2 [C,G,][C,B,] [F,A,]2 [F,C]2) | %12
w: ||
 [F,F]2 [F,F][F,F] [F,C]2 [E,C][D,=B,] | ([C,C]2 [C,C][C,C] [C,C]2) (A,B,) | %14
w: ||
 [F,C]2 [F,C][F,C] [F,D] [F,C]2 (B,/A,/) | [F,A,]2 [F,A,][F,A,] [F,B,] [F,A,]2 |] %16
w: ||
V:4
 F,2 | x8 | x8 | x8 | x6 F,2 | x8 | x8 | x8 | F,6 || x2 | x4 F,2 x2 | x8 | x8 | x6 F,2 | x7 F, | %15
w: ~||||~|||||||||||
 x7 |] %16
w: |

